svg_schematique_blueprint/SCHB VL A.svg

<?xml version="1.0" encoding="UTF-8" standalone="no"?>
<svg
   xmlns:dc="http://purl.org/dc/elements/1.1/"
   xmlns:cc="http://creativecommons.org/ns#"
   xmlns:rdf="http://www.w3.org/1999/02/22-rdf-syntax-ns#"
   xmlns:svg="http://www.w3.org/2000/svg"
   xmlns="http://www.w3.org/2000/svg"
   id="svg11"
   version="1.1"
   viewBox="0 0 128 128"
   height="128px"
   width="128px">
  <metadata
     id="metadata17">
    <rdf:RDF>
      <cc:Work
         rdf:about="">
        <dc:format>image/svg+xml</dc:format>
        <dc:type
           rdf:resource="http://purl.org/dc/dcmitype/StillImage" />
        <dc:title></dc:title>
      </cc:Work>
    </rdf:RDF>
  </metadata>
  <defs
     id="defs15" />
  <rect y="0" x="0" height="128" width="128" id="rect842" style="fill:#405CB1;fill-opacity:0;stroke:none;stroke-width:9.14344" />
  <g
     id="surface1">
    <path
       id="path2"
       transform="matrix(2,0,0,2,0,0)"
       d="M 39.355469 55.855469 C 39.355469 59.996094 35.996094 63.355469 31.855469 63.355469 C 27.712891 63.355469 24.355469 59.996094 24.355469 55.855469 C 24.355469 51.712891 27.712891 48.355469 31.855469 48.355469 C 35.996094 48.355469 39.355469 51.712891 39.355469 55.855469 Z M 39.355469 55.855469 "
       style="fill-rule:nonzero;fill:#405CB1;fill-opacity:1;stroke-width:0.999935;stroke-linecap:round;stroke-linejoin:round;stroke:#E4EAF6;stroke-opacity:1;stroke-miterlimit:4;" />
    <path
       id="path4"
       d="M 60.015625 108.175781 L 62.492188 100.394531 C 62.578125 100.132812 62.730469 100 62.949219 100 C 63.257812 100 63.410156 100.132812 63.410156 100.394531 C 63.410156 100.484375 63.390625 100.578125 63.359375 100.683594 L 60.464844 109.691406 C 60.398438 109.898438 60.246094 110 60.007812 110 C 59.769531 110 59.613281 109.898438 59.550781 109.691406 L 56.632812 100.683594 C 56.601562 100.578125 56.585938 100.484375 56.585938 100.394531 C 56.585938 100.132812 56.734375 100 57.035156 100 C 57.246094 100 57.394531 100.132812 57.480469 100.394531 Z M 60.015625 108.175781 "
       style=" stroke:none;fill-rule:nonzero;fill:#E4EAF6;fill-opacity:1;" />
    <path
       id="path6"
       d="M 65.746094 108.878906 L 70.808594 108.878906 C 71.214844 108.878906 71.414062 109.039062 71.414062 109.351562 C 71.414062 109.65625 71.214844 109.808594 70.808594 109.808594 L 65.289062 109.808594 C 65.160156 109.808594 65.046875 109.773438 64.945312 109.695312 C 64.839844 109.617188 64.789062 109.492188 64.789062 109.324219 L 64.789062 100.65625 C 64.789062 100.21875 64.949219 100 65.269531 100 C 65.585938 100 65.746094 100.230469 65.746094 100.695312 Z M 65.746094 108.878906 "
       style=" stroke:none;fill-rule:nonzero;fill:#E4EAF6;fill-opacity:1;" />
    <path
       id="path8"
       d="M 65.875 121.015625 L 62.0625 121.015625 L 61.519531 123.710938 C 61.484375 123.898438 61.34375 123.992188 61.105469 123.992188 C 60.773438 123.992188 60.613281 123.863281 60.632812 123.597656 C 60.648438 123.414062 60.890625 122.152344 61.359375 119.804688 C 61.789062 117.667969 62.082031 116.265625 62.238281 115.605469 C 62.457031 114.535156 63.042969 114 63.996094 114 C 64.949219 114 65.535156 114.535156 65.757812 115.605469 C 66.046875 116.980469 66.339844 118.355469 66.628906 119.726562 C 67.121094 122.074219 67.367188 123.339844 67.367188 123.519531 C 67.367188 123.839844 67.203125 124 66.867188 124 C 66.605469 124 66.449219 123.886719 66.402344 123.65625 Z M 62.222656 120.085938 L 65.691406 120.085938 L 64.910156 116.125 C 64.757812 115.328125 64.4375 114.929688 63.949219 114.929688 C 63.65625 114.929688 63.4375 115.039062 63.285156 115.257812 C 63.164062 115.441406 63.0625 115.753906 62.976562 116.195312 Z M 62.222656 120.085938 "
       style=" stroke:none;fill-rule:nonzero;fill:#E4EAF6;fill-opacity:1;" />
  </g>
</svg>

<svg xmlns="http://www.w3.org/2000/svg" width="128" height="128"><path fill="none" d="M0 0h128v128H0z" style="fill:#405cb1;fill-opacity:0;stroke:none;stroke-width:9.14344"/><path d="M39.355 55.855a7.5 7.5 0 1 1-14.999-.001 7.5 7.5 0 0 1 15 .001Zm0 0" style="fill-rule:nonzero;fill:#405cb1;fill-opacity:1;stroke-width:.999935;stroke-linecap:round;stroke-linejoin:round;stroke:#e4eaf6;stroke-opacity:1;stroke-miterlimit:4" transform="scale(2)"/><path d="m60.016 108.176 2.476-7.781c.086-.262.238-.395.457-.395.309 0 .461.133.461.395 0 .09-.02.183-.05.289l-2.895 9.007c-.067.207-.219.309-.457.309-.238 0-.395-.102-.457-.309l-2.918-9.007a1.011 1.011 0 0 1-.047-.29c0-.261.148-.394.45-.394.21 0 .359.133.444.395ZM65.746 108.879h5.063c.406 0 .605.16.605.473 0 .304-.2.457-.605.457h-5.52a.543.543 0 0 1-.344-.114c-.105-.078-.156-.203-.156-.37v-8.669c0-.437.16-.656.48-.656.317 0 .477.23.477.695ZM65.875 121.016h-3.813l-.542 2.695c-.036.187-.176.281-.415.281-.332 0-.492-.129-.472-.394.015-.184.258-1.446.726-3.793.43-2.137.723-3.54.88-4.2.218-1.07.804-1.605 1.757-1.605.953 0 1.54.535 1.762 1.605.289 1.375.582 2.75.87 4.122.493 2.347.74 3.613.74 3.793 0 .32-.165.48-.5.48-.263 0-.419-.113-.466-.344Zm-3.652-.93h3.468l-.78-3.961c-.153-.797-.474-1.195-.962-1.195-.293 0-.511.11-.664.328-.12.183-.222.496-.308.937Zm0 0" style="stroke:none;fill-rule:nonzero;fill:#e4eaf6;fill-opacity:1"/></svg>
